X:1
T:Partition sans titre
C:Compositeur / Arrangeur
L:1/8
M:4/4
I:linebreak $
K:D
V:1 treble nm="Violon" snm="Vln."
V:1
 Bc |"Bm" dcdc BFBc | dcdc BGBd |"A" cAEA FEFA | EFAB cBAc |"Bm" dcdc BFBc | dcdc BGBd | %7
"A" ecEc FEFA |1 edcd"Bm" B2 :|2 EDCD"Bm" G2 Ac |:"Bm" dBfB gBfB | aBfB gfed |"A" cAeA fAeA | %13
 gAfA edAc |"Bm" dBfB gBfB | aBfB gfed |"A" cAeA fAeA |1"Bm" dBBA B2 Ac :|2"Bm" dBBA B2 |] %19
